public/images/skills/php.svg

<svg fill="#FFFFFF" xmlns="http://www.w3.org/2000/svg"  viewBox="0 0 50 50" width="50px" height="50px"><path d="M 25 12 C 11.542969 12 1 17.710938 1 25 C 1 32.289063 11.542969 38 25 38 C 38.457031 38 49 32.289063 49 25 C 49 17.710938 38.457031 12 25 12 Z M 22.507813 16 L 25.128906 16 L 24.296875 20 L 26.636719 20 C 28.121094 20 29.117188 20.207031 29.683594 20.726563 C 30.238281 21.238281 30.40625 22.078125 30.183594 23.222656 L 29.144531 28 L 26.480469 28 L 27.4375 23.582031 C 27.554688 22.976563 27.507813 22.554688 27.304688 22.332031 C 27.101563 22.109375 26.65625 22 25.988281 22 L 23.890625 22 L 22.625 28 L 20 28 Z M 11 20 L 16.332031 20 C 18.875 20 20.414063 21.703125 19.8125 24.246094 C 19.113281 27.199219 17.238281 28 13.792969 28 L 12.144531 28 L 11.621094 31 L 8.972656 31 Z M 32 20 L 37.332031 20 C 39.875 20 41.414063 21.703125 40.8125 24.246094 C 40.113281 27.199219 38.238281 28 34.792969 28 L 33.144531 28 L 32.621094 31 L 29.972656 31 Z M 13.269531 22 L 12.515625 26 L 14.226563 26 C 15.707031 26 17.082031 25.832031 17.3125 23.625 C 17.398438 22.769531 17.042969 22 15.332031 22 Z M 34.269531 22 L 33.515625 26 L 35.226563 26 C 36.707031 26 38.082031 25.832031 38.3125 23.625 C 38.398438 22.769531 38.042969 22 36.332031 22 Z"/></svg>

<svg xmlns="http://www.w3.org/2000/svg" width="50" height="50" fill="#FFF"><path d="M25 12C11.543 12 1 17.71 1 25s10.543 13 24 13 24-5.71 24-13-10.543-13-24-13Zm-2.492 4h2.62l-.831 4h2.34c1.484 0 2.48.207 3.047.727.554.511.722 1.351.5 2.496L29.144 28H26.48l.957-4.418c.118-.605.07-1.027-.132-1.25-.203-.223-.649-.332-1.317-.332h-2.097l-1.266 6H20ZM11 20h5.332c2.543 0 4.082 1.703 3.48 4.246C19.113 27.2 17.239 28 13.793 28h-1.648l-.524 3H8.973Zm21 0h5.332c2.543 0 4.082 1.703 3.48 4.246C40.114 27.2 38.239 28 34.794 28h-1.648l-.524 3h-2.648Zm-18.73 2-.754 4h1.71c1.481 0 2.856-.168 3.086-2.375.086-.855-.269-1.625-1.98-1.625Zm21 0-.754 4h1.71c1.481 0 2.856-.168 3.087-2.375.085-.855-.27-1.625-1.981-1.625Z"/></svg>
